X:554
T:Dr. Ross's 50th Welcome To The Argyllshire Gathering 
C:Joe Buchanan's Scottish Tome - Page 135.0
I:135 0
Z:Carl Allison
C:P.M. Donald Macleod
R:Reel
L:1/8
M:6/8
K:A
e | "A"A>ce (c<A)c   | "A"e>fe    {d}c2 A | "A"c<ee   "F#m"{f}e>dB   | "G"B<dc    {c}B2  =A  |
  | "A"A>ce (c<A)c   | "A"e>fe    "F#m"{d}c2 A | "Bm"c<ee  "E7"{f}e>dB    | "A"A3      {A}A2     :|
  | "A"a>Aa A>ce     | "A"{f}e>ca {d}c2 A | "A"(a<e)d "F#m"{f}c>Ac        | "G"(B<d)c  B2     =G  |
  | "A"a>Aa A>ce     | "A"{f}e>ca {d}c2 A | "A"c<ee   "E7"{f}e>dB    | "A"A3      {A}A2  g   |
  | "A"a>Aa A>ce     | "A"{f}e>ca {d}c2 A | "A"a>ed   "F#m"(c<A)c         | "G"(B<d)c  B2     =G  |
  | "A"d>ff (d<c)e   | "A"e>fe    {d}c2 A | "A"c<ee   "E7"{f}e>dB    | "A"A3      {A}A2      |]
e | "A"A>AA {d}c2  d | "A"e>fe    {d}c2 A | "A"e>AA   "F#m"c2           e | "G"(G<d)c  {c}B2  =G  |
  | "A"A>AA {d}c2  d | "A"e>fe    {d}c2 A | "A"(c<e)e "E7"{f}e>dB    | "A"A3      {A}A2     :|
g | "A"a>AA e>AA     | "A"{f}e>ca {d}c2 A | "A"(c<e)a "F#m"e>cA           | "G"(B<d)=g {Bd}B2 =G  |
  | "A"a>AA e>AA     | "A"{f}e>ca {d}c2 A | "A"(c<e)a "E7"e>cA       | "A"A3      {A}A2  g   |
  | "A"a>AA e>AA     | "A"{f}e>ca {d}c2 A | "A"(c<e)a "F#m"e>cA           | "G"(B<d)=g {Bd}B2 =G  |
  | "A"A>Bc "Bm"B>ce     | "A/C#"(c<e)a  "F#m"{d}c2 A | "A"(c<e)e "E7"e>dB       | "A"A3      {A}A2      |]

